icons/character-recognition-line.svg

<svg width="24" height="24" fill="none" xmlns="http://www.w3.org/2000/svg"><g clip-path="url(#a)"><path d="M5 15v4h4v2H3v-6h2Zm16 0v6h-6v-2h4v-4h2Zm-8.001-9 4.4 11h-2.155l-1.201-3h-4.09l-1.199 3H6.6l4.399-11h2Zm-1 2.885L10.752 12h2.492l-1.245-3.115ZM9 3v2H5v4H3V3h6Zm12 0v6h-2V5h-4V3h6Z" /></g><defs><clipPath id="a"><path fill="#fff" d="M0 0h24v24H0z"/></clipPath></defs></svg>

<svg xmlns="http://www.w3.org/2000/svg" width="24" height="24" fill="none"><g clip-path="url(#a)"><g><path fill="#121212" d="M5 15V19H9V21H3V15H5ZM21 15V21H15V19H19V15H21ZM12.999 6L17.399 17H15.244L14.043 14H9.953L8.754 17H6.6L10.999 6H12.999ZM11.999 8.885L10.752 12H13.244L11.999 8.885ZM9 3V5H5V9H3V3H9ZM21 3V9H19V5H15V3H21Z"/></g></g><defs><clipPath id="a"><rect width="24" height="24" fill="white"/></clipPath></defs></svg>
